X: 1
T: Minuet
C: Michael Dabney (c.1760)
R: minuet
B: Michael Dabney "Twelve Minuets and Twelve Dances" p.1 #1
S: http://imslp.org/wiki/12_Minuets_and_12_Dances_(Dabney,_Michael)
Z: 2015 John Chambers <jc:trillian.mit.edu>
M: 3/4
L: 1/8
K: G
% - - - - - - - - - - - - - - - - - - - - - - - - -
% Voice 1 produces mostly 4- or 8-bar staffs.
V: 1
|:\
d4 (c/B/A/G/) | (A3 B/c/) B2 | (3AcA G2 TF2 | {F2}G4 z2 |\
G/F/G/A/ GA B2 | A/G/A/B/ AB c2 | BdgdcB | {B2}A6 :|
|:\
A3 cBd | Tc>Bc>d c2 | B3 dce | Td>^cd>e d2 |\
e2 =ceac | d2 BdgB | {d}cB/A/ G2 TF2 | {F2}G6 :|
% - - - - - - - - - - - - - - - - - - - - - - - - -
% Voice 2 preserves the staff breaks in the book.
V: 2 clef=bass middle=d
|:\
g6 | "6"f2 d2 g2 | "6"c2 "6;4"d2 "3"D2 | G2 Bd G2 |\
g2 d2 G2 | d2 "6"f2 "7"d2 | g4 G2 | d2 D2 z2 :|
|:\
d2 "6"f2 g2 | a2 f2 "7"d2 | g2 G2 z2 | g4 "6"b2 |\
"6"c'2 z2 "6"c'2 | "6"b2 z2 "6"b2 | "6"c'2 "6;4"d'2 "3"d2 | g2 G4 :|
% - - - - - - - - - - - - - - - - - - - - - - - - -

%%sep 1 1 500
%%sep 1 1 500
